X:1
T:Title
%%score { ( 1 4 ) | ( 2 3 ) }
L:1/8
M:4/4
K:D
V:1 treble nm="Grand Piano"
V:4 treble 
V:2 bass 
V:3 bass 
V:1
 z4[Q:1/4=100] F2 A2 | [CE]2 [DF]2 [DG]2 [DB]2 | B2 A2 F2 A2 | d2 c2 .[DFc]2 .[B,EA]2 | %4
 [B,D^G]2 [A,CA]2 [A,DF]2 [A,EA]2 | z4 [A,F]2 z2 | [F,D]4 [A,E]2[K:treble] [^G,DE]2 | %7
 [A,CE]2 [A,EA]2 .[B,EA]2 .[B,EF]2 | [CEA]2 [CE]2 [Ec]2 [CEA]2 | [DAd]2 [CGA]2 [FA]GD-[B,DG] | %10
 [DF]2 [CE]2 [Dd]2 A2 | B2 [Ge]2 d2 [Ec]2 |[M:2/4] [Fd]4 |] %13
V:2
 z4 [D,A,D]2 [D,F,D]2 | [A,,A,]2 [D,A,]2 [B,,G,]2 [G,,G,]2 | [D,G,D]2 [D,F,D]2 [D,A,D]2 [E,G,C]2 | %3
 [F,A,D]2 [A,E]2 z[K:treble] B z ^G | A,,2 A,,2 D,2 C,2 | B,,2 G,,2 D,2 z C | D,4 C,2 B,,2 | %7
 A,,2 C,2 z[K:treble] ^G z G | A,2 A,2[K:bass] A,2 G,2 | F,2 E,2 z ED,G,, | %10
 [A,,A,]2 [A,,A,]2 [B,,F,]2 [D,F,D]2 | [G,D]2 [E,B,]2 [A,F]2 [A,,A,]2 |[M:2/4] [D,A,]4 |] %13
V:3
 x8 | x8 | x8 | z4 D,2[K:treble] E,2 | x8 | z4 z2 A,,2 | x8 | z4 E,2[K:treble] E,2 | %8
 x4[K:bass] x4 | z4 D,2 z2 | x8 | x8 |[M:2/4] x4 |] %13
V:4
 x8 | x8 | x8 | x8 | x8 | [F,D]2 [B,DG]2 D2- [A,DE]2 | x6[K:treble] x2 | x8 | x8 | z4 D2 .[A,F]2 | %10
 x8 | x8 |[M:2/4] x4 |] %13

